!!!!SEGMENT: Ric3009-Qui_est_celuy_qui_a_dit_mal_du_con--La Couronne.krn
!!!id: Ric3009
!!!AGN: Chanson
!!!voices: 3
!!!COM: Jean Richafort
!!!SMS: La Couronne
!!!OTL: Qui est celuy qui a dit mal du con? (La Couronne)
**kern	**kern	**kern
*part3	*part2	*part1
*staff3	*staff2	*staff1
*I"Bassus	*I"Tenor	*I"Superius
*I'B	*I'T	*I'S
*clefF4	*clefGv2	*clefGv2
*k[]	*k[]	*k[]
*C:	*C:	*C:
*M2/1	*M2/1	*M2/1
*met(C|)	*met(C|)	*met(C|)
=1	=1	=1
1G	0r	1r
2.B	.	1G
4A	.	.
=2	=2	=2
1G	0d	2.B
.	.	4A
2r	.	1G
2B	.	.
=3	=3	=3
2.c	1.e	2r
.	.	2A
4B	.	.
2A	.	2.c
2G	2e	.
.	.	4B
=4	=4	=4
2.F	1.d	2A
.	.	2d
4E	.	.
2D	.	2.f
2F	2c	.
.	.	4e
=5	=5	=5
1G	2B	2d
.	2G	2.g
1D	2A	.
.	.	4f#i
.	2A	4f#i
.	.	4e
=6	=6	=6
2r	1G	1g
2G	.	.
2.B	1r	2r
.	.	2G
4A	.	.
=7	=7	=7
1G	0d	2.B
.	.	4A
2r	.	1G
2B	.	.
=8	=8	=8
2.c	1.e	2r
.	.	2A
4B	.	.
2A	.	2.c
2G	2e	.
.	.	4B
=9	=9	=9
2.F	1.d	2A
.	.	2d
4E	.	.
2D	.	2.f
2F	2c	.
.	.	4e
=10	=10	=10
1G	2B	2d
.	2G	2.g
1D	2A	.
.	.	4f#i
.	2A	4f#i
.	.	4e
=11	=11	=11
2r	1G	1g
2G	.	.
2.B	1r	2r
.	.	2g
4c	.	.
=12	=12	=12
1d	1B	2.f
.	.	4e
2r	2B	1d
2G	2B	.
=13	=13	=13
2.F	1.A	1r
4E	.	.
[1D	.	2r
.	2A	2d
=14	=14	=14
1D]	1d	2f
.	.	2f
2r	1d	2.f
2D	.	.
.	.	4g
=15	=15	=15
2F	1A	1.a
2F	.	.
2F	1d	.
2G	.	4g
.	.	4f
=16	=16	=16
1.A	2c	2e
.	4B	2.f
.	4A	.
.	1B	.
.	.	4e
2G	.	[2e
=17	=17	=17
2F	1A	4e]
.	.	4d
4E	.	1d
4D	.	.
1E	1r	.
.	.	2c#i
=18	=18	=18
1D	0F	[0d
2r	.	.
2A	.	.
=19	=19	=19
2B-i	1G	1d]
2G	.	.
2.B-i	2G	2r
.	2G	2d
4A	.	.
=20	=20	=20
1F	1.A	2c
.	.	2A
2r	.	2.c
2A	2A	.
.	.	4B
=21	=21	=21
2B-i	1.d	2G
2G	.	2g
2.B-i	.	4f
.	.	4d
.	2d	[2f
4A	.	.
=22	=22	=22
2.F	1c	4f]
.	.	4e
.	.	4c
4E	.	4d
2C	1c	4e
.	.	4f
2c	.	[2e
=23	=23	=23
2c	1G	4e]
.	.	4d
2B	.	1g
1c	1A	.
.	.	2f#i
=24	=24	=24
2r	1G	1g
2C	.	.
2E	1r	2r
2E	.	2G
=25	=25	=25
0D	0F	2B-X
.	.	2B-i
.	.	1A
=26	=26	=26
2r	1G	1r
2C	.	.
2C	2G	2r
2C	2G	2c
=27	=27	=27
1.F	1.A	2c
.	.	2c
.	.	[1f
2F	2A	.
=28	=28	=28
2.D	1d	2f]
.	.	2f
4E	.	.
4F	1d	1f
4E	.	.
4F	.	.
4G	.	.
=29	=29	=29
2.A	1.c	2.e
8GL	.	4f
8FJ	.	.
2E	.	2g
2F	2c	[2a
=30	=30	=30
2G	2B	2a]
4F	4A	1g
4E	4G	.
4D	1A	.
4C	.	.
2D	.	2f#i
=31	=31	=31
2G	2r	1g
2C	2G	.
2C	2G	2r
2C	2G	2c
=32	=32	=32
1.F	1.A	2c
.	.	2c
.	.	[1f
2F	2A	.
=33	=33	=33
2.D	1.d	2f]
.	.	2f
4E	.	.
4F	.	2f
4E	.	.
4F	2d	2f
4G	.	.
=34	=34	=34
2.A	1.c	2.e
8GL	.	4f
8FJ	.	.
2E	.	2g
2F	2c	[2a
=35	=35	=35
2G	2B	2a]
4F	4A	1g
4E	4G	.
1D	1A	.
.	.	2f#i
=36	=36	=36
00Gl	00Gl	00gl
==	==	==
*-	*-	*-
!!!system-decoration: [*]
!!!RDF**kern: i = editorial accidental
!!!RDF**kern: l = terminal long
!!!ENC: Benjamin Ory
!!!END: 2024/12/6
!!!EED: Benjamin Ory
!!!EEV: 2024/12/06
!!!YEC: Copyright 2024 Benjamin Ory, All Rights Reserved
!!!ONB: Translated from MusicXML on 2024/12/06
